X:341
T: D'Meedche vu Gtzen (79), S.217
N: T0230
O: Luxemburg
S: Singendes Volk, Esch-Alzette 1937 posth.]
N: Junglinster, hhh Vater des Autors, um 1890
R: Liebeslieder]
M: 6/8
L: 1/16
K: G
D2 | G2GGG2G2F2G2 | A6F4D2 | G4z6
D2 | G2GGG2G2F2G2 | A6F4D2 | G4z6
D2 | B2BBB2B2A2B2 | c6B4
B2 | A2A2A2A2_A2=A2 | d6B4B2 | G4z6B2 | G4z6

